lib/svgs/text-file.svg

<?xml version="1.0" encoding="UTF-8"?>
<svg width="16px" height="16px" viewBox="0 0 16 16" version="1.1" xmlns="http://www.w3.org/2000/svg" xmlns:xlink="http://www.w3.org/1999/xlink">
    <!-- Generator: sketchtool 51.3 (57544) - http://www.bohemiancoding.com/sketch -->
    <title>file/text-file</title>
    <desc>Created with sketchtool.</desc>
    <defs></defs>
    <g id="Icons" stroke="none" stroke-width="1" fill="none" fill-rule="evenodd">
        <g id="Web" transform="translate(-195.000000, -1566.000000)" fill="#000000">
            <g id="file/text-file" transform="translate(195.000000, 1566.000000)">
                <path d="M14.331,5.307 L9.493,0.469 C9.193,0.169 8.786,0 8.361,0 L3.6,0 C2.72,0 2,0.72 2,1.6 L2,14.4 C2,15.28 2.72,16 3.6,16 L13.2,16 C14.08,16 14.8,15.28 14.8,14.4 L14.8,6.439 C14.8,6.014 14.631,5.607 14.331,5.307 M13.2,14.8 L3.6,14.8 C3.383,14.8 3.2,14.617 3.2,14.4 L3.2,1.6 C3.2,1.383 3.383,1.2 3.6,1.2 L8.001,1.2 L8.001,5.083 C8.001,6 8.751,6.75 9.668,6.75 L13.6,6.75 L13.6,14.4 C13.6,14.617 13.417,14.8 13.2,14.8 M9.201,1.874 L12.877,5.55 L9.668,5.55 C9.415,5.55 9.201,5.336 9.201,5.083 L9.201,1.874 M8.0012,12.04 L4.6682,12.04 C4.3362,12.04 4.0672,12.309 4.0672,12.64 C4.0672,12.971 4.3362,13.239 4.6682,13.239 L8.0012,13.239 C8.3332,13.239 8.6012,12.971 8.6012,12.64 C8.6012,12.309 8.3332,12.04 8.0012,12.04 M4.6672,9.2334 C4.3362,9.2334 4.0672,9.5024 4.0672,9.8334 C4.0672,10.1654 4.3362,10.4334 4.6672,10.4334 L11.3342,10.4334 C11.6662,10.4334 11.9342,10.1654 11.9342,9.8334 C11.9342,9.5024 11.6662,9.2334 11.3342,9.2334 L4.6672,9.2334" id="Shape"></path>
            </g>
        </g>
    </g>
</svg>

<svg xmlns="http://www.w3.org/2000/svg" viewBox="0 0 16 16">
    <path d="M14.331 5.307L9.493.469A1.6 1.6 0 0 0 8.361 0H3.6C2.72 0 2 .72 2 1.6v12.8c0 .88.72 1.6 1.6 1.6h9.6c.88 0 1.6-.72 1.6-1.6V6.439a1.6 1.6 0 0 0-.469-1.132M13.2 14.8H3.6a.405.405 0 0 1-.4-.4V1.6c0-.217.183-.4.4-.4h4.401v3.883c0 .917.75 1.667 1.667 1.667H13.6v7.65c0 .217-.183.4-.4.4M9.201 1.874l3.676 3.676H9.668a.473.473 0 0 1-.467-.467V1.874m-1.2 10.166H4.668a.6.6 0 1 0 0 1.199h3.333a.599.599 0 1 0 0-1.199M4.667 9.233a.6.6 0 0 0 0 1.2h6.667a.6.6 0 1 0 0-1.2H4.667"/>
</svg>
